!!!!SEGMENT: pl-wtm--r-1143-1--005_dobrzynski-ignacy-feliks--studium-na-temat-oryginalny-op-62-piu-animato.krn
!!!cenid: 18xx:1752
!!!COM: Dobrzyński, Ignacy Feliks
!!!COM-rismid: pe30020642
!!!CDT: 1807/02/15-1867/10/09
!!!CNT: Polish
!!!OPR: Studium na temat oryginalny op. 62
!!!OTL: Piu animato
!!!OMV: 005
!!!PDT: 1867
!!!AGN: Secular; Variations
!!!SMS-siglum: PL-Wtm
!!!SMS-shelfmark: R 1143/1
!!!SMS-shelfwork: 001-005 M
!!!SMS-variant:
!!!SMS-altvar:
!!!NIFC-rismid: 1001057385
!!!URL-scan: http://repozytorium.nifc.pl/skany/pl-wtm-nut--r1143
!!!ONB-nifc: UWAGA: numeracja części zgodna z numerami w źródle. Na podstawie partytury (folder r1143-1)
**kern	**dynam	**kern	**dynam	**kern	**dynam	**kern	**dynam
*part4	*part4	*part3	*part3	*part2	*part2	*part1	*part1
*staff4	*	*staff3	*	*staff2	*	*staff1	*
*I"Violoncello	*	*I"Viola	*	*I"Violino Secondo	*	*I"Violino Primo.	*
*I'vln	*	*I'vla	*	*I'vn 2	*	*I'vn 1	*
*clefF4	*	*clefC3	*	*clefG2	*	*clefG2	*
*k[f#c#g#]	*	*k[f#c#g#]	*	*k[f#c#g#]	*	*k[f#c#g#]	*
*A:	*	*A:	*	*A:	*	*A:	*
*M4/4	*	*M4/4	*	*M4/4	*	*M4/4	*
*met(c)	*	*met(c)	*	*met(c)	*	*met(c)	*
=1	=1	=1	=1	=1	=1	=1	=1
!	!	!	!	!LO:TX:a:t=8a. c. 1o	!	!	!
!	!	!LO:TX:a:t=8a c. Cello	!	!LO:TX:b:i:t=energico	!	!LO:TX:b:i:t=energico	!
!LO:TX:a:i:t=energico	!	!LO:TX:a:i:t=energico	!	!LO:TX:a:i:t=Più animato	!	!LO:TX:a:i:t=Più animato	!
!	!	!	!	!	!	!LO:TX:a:i:t=No 5.	!
8C#/L	f	8c#/Lyy	f	2e/yy	f	2ee\	f
8BB/J	.	8B/Jyy	.	.	.	.	.
8AA/L	.	8A/Lyy	.	.	.	.	.
16BB/L	.	16B/Lyy	.	.	.	.	.
16C#/JJ	.	16c#/JJyy	.	.	.	.	.
8D/L	.	8d\Lyy	.	4f#^>/yy	.	4ff#^\	.
8C#/J	.	8c#\Jyy	.	.	.	.	.
8BB\L	.	8B\Lyy	.	4g#^>/yy	.	4gg#^\	.
16E\L	.	16e\Lyy	.	.	.	.	.
16D\JJ	.	16d\JJyy	.	.	.	.	.
=2	=2	=2	=2	=2	=2	=2	=2
8C#/	.	8c#\yy	.	4a^>/yy	.	4aa^\	.
4AA/	.	4A/yy	.	.	.	.	.
.	.	.	.	4b^\yy	.	4bb^\	.
8GG#/	.	8G#/yy	.	.	.	.	.
8AA/L	.	8A/Lyy	.	2cc#^\yy	.	2ccc#^\	.
16AA/L	.	16A/Lyy	.	.	.	.	.
16BB/JJ	.	16B/JJyy	.	.	.	.	.
8C#/L	.	8c#/Lyy	.	.	.	.	.
8AA/J	.	8A/Jyy	.	.	.	.	.
=3	=3	=3	=3	=3	=3	=3	=3
8FF#/L	.	8F#/Lyy	.	2dd^\yy	.	2ddd^\	.
8GG#/J	.	8G#/Jyy	.	.	.	.	.
8AA/L	.	8A/Lyy	.	.	.	.	.
16GG#/L	.	16G#/Lyy	.	.	.	.	.
16FF#/JJ	.	16F#/JJyy	.	.	.	.	.
8EE/	.	8E/yy	.	4cc#^\yy	.	4ccc#^\	.
4AA/	.	4A/yy	.	.	.	.	.
.	.	.	.	4a^>/yy	.	4aa^\	.
8C#/	.	8c#\yy	.	.	.	.	.
=4	=4	=4	=4	=4	=4	=4	=4
8r	.	8ryy	.	(2b^\yy	.	(2bb^\	.
8D/	.	8d/yy	.	.	.	.	.
(4GG#tt/	.	(4G#tt/yy	.	.	.	.	.
(16qqFF#/LL	.	(16qqF#/LLyy	.	.	.	.	.
16qqGG#/JJ)	.	16qqG#/JJ)yy	.	.	.	.	.
8AA/L)	.	8A\L)yy	.	4a/)yy	.	4aa\)	.
16C#'/L	.	16c#'\Lyy	.	.	.	.	.
16E'/JJ	.	16e'\JJyy	.	.	.	.	.
4A'\	.	4a'\yy	.	4ryy	.	4r	.
=5	=5	=5	=5	=5	=5	=5	=5
!LO:TX:b:i:t=energico	!	!LO:TX:b:i:t=energico	!	!LO:TX:b:i:t=energico	!	!LO:TX:b:i:t=energico	!
!	!	!	!	!	!	!LO:TX:a:t=8a. c. Vno 2o	!
2EE^>/	f	2E^>/yy	f	8cc#\L	f	8ccc#\Lyy	f
.	.	.	.	8b\J	.	8bb\Jyy	.
.	.	.	.	8a\L	.	8aa\Lyy	.
.	.	.	.	16b\L	.	16bb\Lyy	.
.	.	.	.	16cc#\JJ	.	16ccc#\JJyy	.
4FF#^>/	.	4F#^>/yy	.	8dd\L	.	8ddd\Lyy	.
.	.	.	.	8cc#\J	.	8ccc#\Jyy	.
4GG#^>/	.	4G#^>/yy	.	8b\L	.	8bb\Lyy	.
.	.	.	.	16ee\L	.	16eee\Lyy	.
.	.	.	.	16dd\JJ	.	16ddd\JJyy	.
!!LO:LB:g=original
=6	=6	=6	=6	=6	=6	=6	=6
!	!	!LO:TX:a:t=c. Cello 8	!	!	!	!	!
4AA^>/	.	4A^>/yy	.	8cc#\	.	8ccc#\yy	.
.	.	.	.	4a/	.	4aa\yy	.
4BB^>/	.	4B^>/yy	.	.	.	.	.
.	.	.	.	8g#/	.	8gg#\yy	.
2C#^>/	.	2c#^>\yy	.	8a\L	.	8aa\Lyy	.
.	.	.	.	16a\L	.	16aa\Lyy	.
.	.	.	.	16b\JJ	.	16bb\JJyy	.
.	.	.	.	8cc#\L	.	8ccc#\Lyy	.
.	.	.	.	8a\J	.	8aa\Jyy	.
=7	=7	=7	=7	=7	=7	=7	=7
2D^>/	.	2d^>/yy	.	8f#/L	.	8ff#\Lyy	.
.	.	.	.	8g#/J	.	8gg#\Jyy	.
.	.	.	.	8a/L	.	8aa\Lyy	.
.	.	.	.	16g#/L	.	16gg#\Lyy	.
.	.	.	.	16f#/JJ	.	16ff#\JJyy	.
4C#^>/	.	4c#^>\yy	.	8e/	.	8ee\yy	.
.	.	.	.	4a\	.	4aa\yy	.
4AA^>/	.	4A^>/yy	.	.	.	.	.
.	.	.	.	8cc#\	.	8ccc#\yy	.
=8	=8	=8	=8	=8	=8	=8	=8
(2BB^>/	.	(2B^>/yy	.	8r	.	8ryy	.
.	.	.	.	8dd\	.	8ddd\yy	.
.	.	.	.	(4g#tt/	.	(4gg#tt\yy	.
.	.	.	.	16qqf#/LL	.	16qqff#/LLyy	.
.	.	.	.	16qqg#/JJ	.	16qqgg#/JJyy	.
4AA/)	.	4A/)yy	.	8a\L)	.	8aa\L)yy	.
.	.	.	.	16cc#'\L	.	16ccc#'\Lyy	.
.	.	.	.	16ee'\JJ	.	16eee'\JJyy	.
4r	.	4ryy	.	4aa'\	.	4aaa'\yy	.
=9	=9	=9	=9	=9	=9	=9	=9
!	!LO:DY:a	!	!LO:DY:a	!LO:TX:b:i:t=espres(sivo)&colon;	!	!LO:TX:b:i:t=espres(sivo)&colon;	!
8FF#/L	p	8F#/Lyy	p	2a/	p	2aa\yy	p
8AA/J	.	8A/Jyy	.	.	.	.	.
8C#/L	.	8c#/Lyy	.	.	.	.	.
16AA/L	.	16A/Lyy	.	.	.	.	.
16FF#/JJ	.	16F#/JJyy	.	.	.	.	.
8EE#X'/L	.	8E#X'/Lyy	.	(>4g#^>/	.	(4gg#^\yy	.
8C#'/	.	8c#'/yy	.	.	.	.	.
8FF#'/	.	8F#'/yy	.	4f#^>/)	.	4ff#^\)yy	.
8C#'/J	.	8c#'/Jyy	.	.	.	.	.
=10	=10	=10	=10	=10	=10	=10	=10
8BB'/L	.	8B'/Lyy	.	(4e#X'^>/	.	(4ee#X'^\yy	.
8C#'/	.	8c#'/yy	.	.	.	.	.
8AA'/	.	8A'/yy	.	4f#'^>/)	.	4ff#'^\)yy	.
8FF#'/J	.	8F#'/Jyy	.	.	.	.	.
8EE#X'/L	.	8E#X'/Lyy	.	2g#^>/	.	2gg#^\yy	.
8GG#'/	.	8G#'/yy	.	.	.	.	.
8EE#'/	.	8E#'/yy	.	.	.	.	.
8CC#'/J	.	8C#'/Jyy	.	.	.	.	.
!!LO:LB:g=original
=11	=11	=11	=11	=11	=11	=11	=11
!LO:TX:t=cres_:problem:dynamics with extention lines	!LO:HP:t=cres	!LO:TX:t=cres_:problem:dynamics with extention lines	!LO:HP:t=cres	!LO:TX:t=cres_:problem:dynamics with extention lines	!LO:HP:t=cres	!LO:TX:t=cres_:problem:dynamics with extention lines	!LO:HP:t=cres
8FF#/	<	8F#/yy	<	(4a\	<	(4aa\yy	<
4C#^>/	.	4c#^>\yy	.	.	.	.	.
.	.	.	.	4cc#\)	.	4ccc#\)yy	.
[8AA/	.	[8A/yy	.	.	.	.	.
8AA/L]	.	8A/L]yy	.	2dd#Xtt\	.	2ddd#Xtt\yy	.
16GG#/L	.	16G#/Lyy	.	.	.	.	.
16AA/JJ	.	16A/JJyy	.	.	.	.	.
8BB/L	.	8B/Lyy	.	.	.	.	.
8AA/J	.	8A/Jyy	.	.	.	.	.
.	.	.	.	(16qqcc#/LL	.	(16qqccc#/LLyy	.
.	.	.	.	16qqdd#/JJ)	.	16qqddd#/JJ)yy	.
=12	=12	=12	=12	=12	=12	=12	=12
8GG#/L	.	8G#/Lyy	.	(2ee\	.	(2eee\yy	.
16EE/L	.	16E/Lyy	.	.	.	.	.
16FF#/JJ	.	16F#/JJyy	.	.	.	.	.
8GG#/L	<	8G#/Lyy	<	.	.	.	.
8AA/J	.	8A/Jyy	.	.	.	.	.
8BB/L	.	8B\Lyy	.	4e/)	.	4ee\)yy	.
8C#/	.	8c#\yy	.	.	.	.	.
8D/	.	8d\yy	.	4r	.	4ryy	.
8BB/J	[[	8B\Jyy	[[	.	.	.	.
=13	=13	=13	=13	=13	=13	=13	=13
8C#/L	f	8c#/Lyy	f	2e/	f	2ee\yy	f
8BB/J	.	8B/Jyy	.	.	.	.	.
8AA/L	.	8A/Lyy	.	.	.	.	.
16BB/L	.	16B/Lyy	.	.	.	.	.
16C#/JJ	.	16c#/JJyy	.	.	.	.	.
8D/L	.	8d\Lyy	.	4f#^>/	.	4ff#^\yy	.
8C#/J	.	8c#\Jyy	.	.	.	.	.
8BB/L	.	8B\Lyy	.	4g#^>/	.	4gg#^\yy	.
16E/L	.	16e\Lyy	.	.	.	.	.
16D/JJ	.	16d\JJyy	.	.	.	.	.
=14	=14	=14	=14	=14	=14	=14	=14
8C#/	.	8c#\yy	.	4a^\	.	4aa^\yy	.
4AA^>/	.	4A^>/yy	.	.	.	.	.
.	.	.	.	4b^\	.	4bb^\yy	.
8GG#/	.	8G#/yy	.	.	.	.	.
8AA/L	.	8A/Lyy	.	2cc#^\	.	2ccc#^\yy	.
16AA/L	.	16A/Lyy	.	.	.	.	.
16BB/JJ	.	16B/JJyy	.	.	.	.	.
8C#/L	.	8c#/Lyy	.	.	.	.	.
8AA/J	.	8A/Jyy	.	.	.	.	.
=15	=15	=15	=15	=15	=15	=15	=15
8FF#/L	.	8F#/Lyy	.	2dd^\	.	2ddd^\yy	.
8GG#/J	.	8G#/Jyy	.	.	.	.	.
8AA/L	.	8A/Lyy	.	.	.	.	.
16GG#/L	.	16G#/Lyy	.	.	.	.	.
16FF#/JJ	.	16F#/JJyy	.	.	.	.	.
8EE/	.	8E/yy	.	4cc#^\	.	4ccc#^\yy	.
4AA^/	.	4A^/yy	.	.	.	.	.
.	.	.	.	4a^\	.	4aa^\yy	.
8C#/	.	8c#\yy	.	.	.	.	.
!!LO:PB:g=original
=16	=16	=16	=16	=16	=16	=16	=16
8r	.	8ryy	.	(2b^<\	.	(2bb^\yy	.
8D\	.	8d\yy	.	.	.	.	.
(4GG#tt/	.	(4G#tt/yy	.	.	.	.	.
(16qqFF#/LL	.	(16qqF#/LLyy	.	.	.	.	.
16qqGG#/JJ)	.	16qqG#/JJ)yy	.	.	.	.	.
8AA/L)	.	8A\L)yy	.	4a\)	.	4aa\)yy	.
16C#'/L	.	16c#'\Lyy	.	.	.	.	.
16E'/JJ	.	16e'\JJyy	.	.	.	.	.
4A'\	.	4a'\yy	.	4r	.	4ryy	.
=17	=17	=17	=17	=17	=17	=17	=17
!	!LO:DY:a	!	!LO:DY:a	!	!	!	!
2AA/	p	2A/yy	p	8f#\L	p	8ff#\Lyy	p
.	.	.	.	8a\J	.	8aa\Jyy	.
.	.	.	.	8cc#\L	.	8ccc#\Lyy	.
.	.	.	.	16a\L	.	16aa\Lyy	.
.	.	.	.	16f#\JJ	.	16ff#\JJyy	.
(4GG#'^>/	.	(4G#'^>/yy	.	8e#X'\L	.	8ee#X'\Lyy	.
.	.	.	.	8cc#'\	.	8ccc#'\yy	.
4FF#'^>/)	.	4F#'^>/)yy	.	8f#'\	.	8ff#'\yy	.
.	.	.	.	8cc#\J	.	8ccc#\Jyy	.
=18	=18	=18	=18	=18	=18	=18	=18
(4EE#X'^>/	.	(4E#X'^>/yy	.	8b'\L	.	8bb'\Lyy	.
.	.	.	.	8cc#'\	.	8ccc#'\yy	.
4FF#'^>/)	.	4F#'^>/)yy	.	8a'\	.	8aa'\yy	.
.	.	.	.	8f#'\J	.	8ff#'\Jyy	.
2GG#^>/	.	2G#^>/yy	.	8enX'/L	.	8eenX'\Lyy	.
.	.	.	.	8g#'/	.	8gg#'\yy	.
.	.	.	.	8eny'/	.	8eeny'\yy	.
.	.	.	.	8c#'/J	.	8cc#'\Jyy	.
=19	=19	=19	=19	=19	=19	=19	=19
(>4AA/	.	(>4A/yy	.	8f#/	.	8ff#\yy	.
.	.	.	.	4cc#^\	.	4ccc#^\yy	.
4C#/)	.	4c#\)yy	.	.	.	.	.
!	!	!	!	!LO:TX:t=cres_:problem:dynamics with extention lines	!LO:HP:t=cres	!LO:TX:t=cres_:problem:dynamics with extention lines	!LO:HP:t=cres
.	.	.	.	[8a\	<	[8aa\yy	<
!LO:TX:t=cres_:problem:dynamics with extention lines	!LO:HP:t=cres	!LO:TX:t=cres_:problem:dynamics with extention lines	!LO:HP:t=cres	!	!	!	!
2D#Xtt\	<	2d#Xtt\yy	<	8a\L]	.	8aa\L]yy	.
.	.	.	.	16g#\L	.	16gg#\Lyy	.
.	.	.	.	16a\JJ	.	16aa\JJyy	.
.	.	.	.	8b\L	.	8bb\Lyy	.
.	.	.	.	8a\J	.	8aa\Jyy	.
(16qqC#/LL	.	(16qqc#/LLyy	.	.	.	.	.
16qqD#/JJ)	.	16qqd#/JJ)yy	.	.	.	.	.
=20	=20	=20	=20	=20	=20	=20	=20
2E\	.	2e\yy	.	8g#/L	.	8gg#\Lyy	.
.	.	.	.	16e/L	.	16ee\Lyy	.
.	.	.	.	16f#/JJ	.	16ff#\JJyy	.
.	.	.	.	8g#/L	<	8gg#\Lyy	.
.	.	.	.	8a/J	.	8aa\Jyy	.
4EE/	.	4E/yy	.	8b\L	.	8bb\Lyy	<
.	.	.	.	8cc#\	.	8ccc#\yy	.
4r	.	4ryy	.	8dd\	.	8ddd\yy	.
.	.	.	.	8b\J	[[	8bb\Jyy	[[
!!LO:LB:g=original
=21	=21	=21	=21	=21	=21	=21	=21
!	!	!	!	!	!	!LO:TX:a:t=i. V.2do	!
!LO:TX:a:i:t=energico	!LO:DY:a	!LO:TX:a:i:t=energico	!LO:DY:a	!LO:TX:b:i:t=energico	!	!LO:TX:b:i:t=energico	!
2EE^>/	f	2E^>/yy	f	8cc#\L	f	8ccc#\Lyy	f
.	.	.	.	8b\J	.	8bb\Jyy	.
.	.	.	.	8a\L	.	8aa\Lyy	.
.	.	.	.	16b\L	.	16bb\Lyy	.
.	.	.	.	16cc#\JJ	.	16ccc#\JJyy	.
4FF#^>/	.	4F#^>/yy	.	8dd\L	.	8ddd\Lyy	.
.	.	.	.	8cc#\J	.	8ccc#\Jyy	.
4GG#^>/	.	4G#^>/yy	.	8b\L	.	8bb\Lyy	.
.	.	.	.	16ee\L	.	16eee\Lyy	.
.	.	.	.	16dd\JJ	.	16ddd\JJyy	.
=22	=22	=22	=22	=22	=22	=22	=22
4AA^>/	.	4A^>/yy	.	8cc#\	.	8ccc#\yy	.
.	.	.	.	4a^>/	.	4aa^\yy	.
4BB^>/	.	4B^>/yy	.	.	.	.	.
.	.	.	.	8g#/	.	8gg#\yy	.
2C#^>/	.	2c#^>\yy	.	8a\L	.	8aa\Lyy	.
.	.	.	.	16a\L	.	16aa\Lyy	.
.	.	.	.	16b\JJ	.	16bb\JJyy	.
.	.	.	.	8cc#\L	.	8ccc#\Lyy	.
.	.	.	.	8a\J	.	8aa\Jyy	.
=23	=23	=23	=23	=23	=23	=23	=23
2D^>/	.	2d^>/yy	.	8f#/L	.	8ff#\Lyy	.
.	.	.	.	8g#/J	.	8gg#\Jyy	.
.	.	.	.	8a/L	.	8aa\Lyy	.
.	.	.	.	16g#/L	.	16gg#\Lyy	.
.	.	.	.	16f#/JJ	.	16ff#\JJyy	.
4C#^>/	.	4c#^>\yy	.	8e/	.	8ee\yy	.
.	.	.	.	4a^\	.	4aa^\yy	.
4AA^>/	.	4A^>/yy	.	.	.	.	.
.	.	.	.	8cc#\	.	8ccc#\yy	.
=24	=24	=24	=24	=24	=24	=24	=24
(2BB^>/	.	(2B^>/yy	.	8r	.	8ryy	.
.	.	.	.	8dd\	.	8ddd\yy	.
.	.	.	.	(4g#^tt/	.	(4gg#^tt\yy	.
.	.	.	.	16qqf#/LL	<	16qqff#/LLyy	<
.	.	.	.	16qqg#/JJ	.	16qqgg#/JJyy	.
4AA/)	.	4A/)yy	.	8a\L)	.	8aa\L)yy	.
.	.	.	.	16cc#'\L	.	16ccc#'\Lyy	.
.	.	.	.	16ee'\JJ	.	16eee'\JJyy	.
4r;	.	4r;yy	.	8aa'\	[	8aaa'\yy	[
.	.	.	.	8r;	.	8r;yy	.
!!LO:LB:g=original
==	==	==	==	==	==	==	==
*-	*-	*-	*-	*-	*-	*-	*-
!!!system-decoration: [(s1,s2,s3,s4)]
!!!RDF**kern: < = below
!!!RDF**kern: > = above
!!!ENC: Marta Chmielewska
!!!END: 2021-04-13
!!!ENC: Andrzej Gręziak
!!!END: 2021-04-06
